X:1
T:Star of Beauty (Belden)
T:Star of Beauty (Belden)
T:Franklin Edson Belden
T:Franklin Edson Belden, 1882
T:Public Domain Courtesy of the Cyber Hymnal™
T:Public Domain Courtesy of the Cyber Hymnal™
C:Franklin Edson Belden
Z:Public Domain
Z:Courtesy of the Cyber Hymnal™
%%score ( 1 2 ) ( 3 4 )
L:1/8
Q:1/4=107
M:9/8
K:F
V:1 treble 
V:2 treble 
V:3 bass 
V:4 bass 
V:1
 (CF)[FB] [FA]3 [FA]3 | (CE)[EG] F3 F3 | (FG)[FA] [FB]3 [FB]3 | ([FA][Ac])[FA] [EG]3- [EG]2 z | %4
w: 1.~Star * of beau- ty,|star * of splen- dor,|Her- * ald of the|glori- * ous morn, *|
w: 2.~Star * of beau- ty,|bright- * ly beam- ing,|Lead * our way- ward|steps * a- right! *|
w: 3.~Star * of beau- ty,|shine * for- ev- er!|Beam * up- on us|from * a- bove; *|
 (CF)[FB] [FA]3 [FA]3 | (CE)[EG] F3 F3 | (FA)[Fc] [Fd]3 [Fd]3 | ([Fc][EG])[EA] F3- F2 z | %8
w: When * our Sav- ior|and * de- fen- der|In * the man- ger|low * was born! *|
w: Let * thy rays of|glo- * ry stream- ing|Guide * us thro’ the|dark- * est night! *|
w: Bless- * èd star, for-|sake * me ne- ver!|Pierce * the gloom with|ray * of love. *|
 ([EG][DF])[CE] [Ec]3 [Ec]3 | ([CE][EG])[Ec] [F=B]3 [FB]3 | ([G=B][FA])[EG] [=B,D]3 [DF]3 | %11
w: Crowned * with light, and|robed * with glo- ry|Came * the lit- tle|
w: Ban- * ish doubt and|ban- * ish sad- ness,|Rise * in ev- ery|
w: End * the reign of|sin * and sor- row,|Bid * the clouds of|
 ([DF][FA])[=B,G] [CE]3- [CE]2 z | ([EG][DF])[CE] [Ec]3 [Ec]3 | ([CE][EG])[Ec] [F=B]3 [FB]3 | %14
w: Prince * di- vine; *|While * the an- gels|chant * the sto- ry,|
w: heart * and shine! *|Star * of hope and|star * of glad- ness,|
w: dark- * ness flee! *|Ush- * er in the|gold- * en mor- row|
 ([G=B][FA])[EG] [=B,D]3 [DF]3 | ([DF][CE])[=B,D] C3- C2 z ||"^Refrain" (CF)[FB] [FA]3 [FA]3 | %17
w: Hail * to Him of|roy- * al line! *||
w: Fill * our souls with|light * di- vine! *|Star * of beau- ty,|
w: Of * a glad e-|ter- * ni- ty. *||
 (CE)[EG] F3 F3 | (FG)[FA] [FB]3 [FB]3 | ([FA][Ac])[FA] [EG]3- [EG]2 z | (CF)[FB] [FA]3 [FA]3 | %21
w: ||||
w: star * of splen- dor!|Bless- * èd light of|hope * be- low! *|Her- * ald of the|
w: ||||
 (CE)[EG] F3 F3 | (FA)[Fc] [Fd]3 [Fd]3 | ([Fc][EG])[EA] F3- F2 z |] %24
w: |||
w: world’s * de- fen- der!|Guid- * ing star of|long * a- go! *|
w: |||
V:2
 C2 x7 | C2 F3 F3 x | F2 x7 | x9 | C2 x7 | C2 F3 F3 x | F2 x7 | x3 F3- F2 x | x9 | x9 | x9 | x9 | %12
 x9 | x9 | x9 | x3 C3- C2 x || C2 x7 | C2 F3 F3 x | F2 x7 | x9 | C2 x7 | C2 F3 F3 x | F2 x7 | %23
 x3 F3- F2 x |] %24
V:3
 [F,A,]2 [F,D] [F,C]3 [F,C]3 | [C,C]2 [C,B,] [F,A,]3 [F,A,]3 | (A,B,)[F,C] [B,,D]3 [B,,D]3 | %3
 [F,C]2 [F,C] [C,C]3- [C,C]2 z | [F,A,]2 [F,D] [F,C]3 [F,C]3 | [C,C]2 [C,B,] [F,A,]3 [F,A,]3 | %6
 (A,C)[F,A,] [B,,B,]3 [B,,B,]3 | (A,C)[C,B,] [F,A,]3- [F,A,]2 z | [C,C]2 [C,G,] [C,G,]3 [C,G,]3 | %9
 [C,G,]2 [C,G,] G,3 G,3 | G,2 G, G,3 G,3 | [G,,G,]2 [G,,G,] [C,G,]3- [C,G,]2 z | %12
 [C,C]2 [C,G,] [C,G,]3 [C,G,]3 | [C,G,]2 [C,G,] G,3 G,3 | G,2 G, G,3 G,3 | %15
 [G,,G,]2 [G,,F,] [C,E,]3- [C,E,]2 z || [F,A,]2 [F,D] [F,C]3 [F,C]3 | %17
 [C,C]2 [C,B,] [F,A,]3 [F,A,]3 | (A,B,)[F,C] [B,,D]3 [B,,D]3 | [F,C]2 [F,C] [C,C]3- [C,C]2 z | %20
 [F,A,]2 [F,D] [F,C]3 [F,C]3 | [C,C]2 [C,B,] [F,A,]3 [F,A,]3 | (A,C)[F,A,] [B,,B,]3 [B,,B,]3 | %23
 (A,C)[C,B,] [F,A,]3- [F,A,]2 z |] %24
V:4
 x9 | x9 | F,2 x7 | x9 | x9 | x9 | F,2 x7 | C,2 x7 | x9 | x3 G,3 G,3 | G,2 G, G,3 G,3 | x9 | x9 | %13
 x3 G,3 G,3 | G,2 G, G,3 G,3 | x9 || x9 | x9 | F,2 x7 | x9 | x9 | x9 | F,2 x7 | C,2 x7 |] %24

